X: 12348
T: Falling Leaves
R: jig
M: 6/8
K: Dmajor
B|:A2D F2D|ADF A2B|A2D d2F|BAF E2A|
A2D F2D|ADF A2d|f2a g2e|fdd d2B:|
|:A2B AFD|GBG F2A|E2A ABA|GFE F2D|
A2B AFD|GBG FED|E2F G2E|FDD D2d:|
|:a2b afd|gbg f2a|e2c ABG|FGE F2G|
A2D F2D|ADF A2d|f2a g2e|fdd d2B:|

